!!!COM: Schubert, Franz
!!!CNT: Deutscher
!!!TXO: Deutsch
!!!LYR: Johann Mayrhofer
!!!OTL: "Lied eines Schiffers an die Dioskuren"
!!!OPS: Op. 65
!!!ONM: No. 1
!!!ODT: 1816/
!!NB: Vocal melody only encoded.
!!NB: Original key
**kern	**silbe
*clefG2	*
*k[b-e-a-d-]	*
*M3/4	*
*MM[Langsam]	*
=2	=2
4r	.
4r	.
{8.cc	{Di-
16cc	-os-
=3	=3
4cc	-ku-
4a-	-ren,
8cc	Zwil-
8dd-	-lings-
=4	=4
4cc	-ster-
4b-	-ne,
8.ee-	die
16ee-	ihr
=5	=5
4ee-	leuch-
4cc	-tet
8.ee-	mei-
16dd-	-nem
=6	=6
4b-	Na-
4cc}	-chen,}
4r	.
=7	=7
2.r	.
=8	=8
4r	.
4r	.
{8a-	{mich
8g	be-
=9	=9
4.f	-ru-
8b-	-higt
8a-	auf
8g	dem
=10	=10
4cc	Mee-
4a-}	-re}
{8.ee-	{eu-
16ee-	-re
=11	=11
4ee-	Mil-
4cc	-de,
8.dd-	eu-
16dd-	-er
=12	=12
4dd-	Wa-
4b-}	-chen,}
{8.cc	{eu-
16b-	-re
=13	=13
4b-	Mil-
4a-	-de,
8.cc	eu-
16b-	-er
=14	=14
2.b-	Wa-
=15	=15
4a-}	-chen.}
4r	.
4r	.
=16	=16
4r	.
4r	.
{8.cc	{Wer
16cc	auch
=17	=17
4.cc	fest
8g	in
8.a-	sich
16f	be-
=18	=18
4en	-gru2n-
4c}	-det,}
{8.dd-	{un-
16dd-	-ver-
=19	=19
4.dd-	-zagt
8f	dem
8.f	Sturm
16g	be-
=20	=20
4a-	-geg-
4g}	-net,}
4r	.
=21	=21
4r	.
4r	.
{8.ee-	{fu2hlt
16ee-	sich
=22	=22
4.ee-	doch
8cc	in
8b-	eu-
8a-	-ren
=23	=23
4a-	Strah-
4g}	-len}
{8.ee-	{dop-
16ee-	-pelt
=24	=24
4.ee-	mu-
8cc	-tig
8b-	und
8b-	ge-
=25	=25
2.ddn	-seg-
=26	=26
4ee-}	-net.}
4r	.
4r	.
=27	=27
4r	.
4r	.
{8.cc	{Die-
16cc	-ses
=28	=28
4cc	Ru-
4a-	-der,
8cc	das
8dd-	ich
=29	=29
4cc	schwin-
4b-}	-ge,}
{8.ee-	{Mee-
16ee-	-res-
=30	=30
4ee-	-flu-
4cc	-ten
8.ee-	zu
16dd-	zer-
=31	=31
4b-	-tei-
4cc}	-len,}
{8a-	{ha2n-
8g	-ge
=32	=32
4.f	ich,
8b-	so
8a-	ich
8g	ge-
=33	=33
4cc	-bor-
4a-}	-gen,}
{8.ee-	{auf
16ee-	an
=34	=34
4.ee-	eu-
8cc	-res
8.dd-	Tem-
16dd-	-pels
=35	=35
4dd-	Sa2u-
4b-}	-len,}
{8.cc	{Di-
16b-	-os-
=36	=36
4b-	-ku-
4a-	ren
8.cc	Zwil-
16b-	-lings-
=37	=37
2.b-	-ster-
=38	=38
4a-}	-ne.}
4r	.
4r	.
==	==
*-	*-